X:1
T:St. Sophronius, 10.10.10.10
T:St. Sophronius, 10.10.10.10
T:Arthur Henry Brown, 1880
T:Public Domain Courtesy of the Cyber Hymnal™
C:Arthur Henry Brown, 1880
Z:Public Domain
Z:Courtesy of the Cyber Hymnal™
%%score ( 1 2 ) ( 3 4 )
L:1/8
Q:1/4=115
M:3/4
K:Ab
V:1 treble 
V:2 treble 
V:3 bass 
V:4 bass 
V:1
 A2 G2 F2 | =E3 F G2 | F2 E2 D2 | C6 | [EG]2 [EG]2 [EG]2 | [EG]3 [F=B] [Gc]2 | [FA]2 [EG]2 [=DF]2 | %7
 G6 | [EG]2 [GB]3 [Ec] | [EB]3 [EA] [EA]2 | A2 z [=Ae]2 x | [Bd]6 | [GB]2 [Ac]2 d2 | %13
 [Ee]3 [DG] !fermata![CA]2 | [DF]2 E2 E2 x | [CE]6 |] %16
V:2
 A2 G2 F2 | =E3 F G2 | F2 E2 D2 | C6 | x6 | x6 | x6 | (E2 =D4) | x6 | x6 | F3 (f2 G) | x6 | %12
 x4 (GF) | x6 | x2 (B,C) (DB,) x | x6 |] %16
V:3
 A,2 G,2 F,2 | =E,3 F, G,2 | F,2 E,2 D,2 | C,6 | C2 C2 C2 | C3 [=D,=D] [C,E]2 | %6
 [F,C]2 [G,C]2 [A,C]2 | (C2 =B,4) | [E,B,]2 [E,D]3 [G,D] | [A,D]3 [A,C] [A,C]2 | [D,D]2 D2 [CE]2 | %11
 [B,F]6 | E2 [C,E]2 [B,,D]2 | C3 [E,B,] !fermata![F,A,]2 | A,3 z A, [E,G,]2 | [A,,A,]6 |] %16
V:4
 A,2 G,2 F,2 | =E,3 F, G,2 | F,2 E,2 D,2 | C,6 | (C,=D,) (E,F,) (G,A,) | (G,F, E,) x3 | x6 | G,6 | %8
 x6 | x6 | x2 D2 x2 | x6 | (E,D,) x4 | (C,2 D,) x3 | D,2 E,2 x3 | x6 |] %16

